assets/Wheel of dharma/Flat/wheel_of_dharma_flat.svg

<svg width="32" height="32" viewBox="0 0 32 32" fill="none" xmlns="http://www.w3.org/2000/svg">
<path d="M30 26C30 28.2091 28.2091 30 26 30H6C3.79086 30 2 28.2091 2 26V6C2 3.79086 3.79086 2 6 2H26C28.2091 2 30 3.79086 30 6V26Z" fill="#8D65C5"/>
<path d="M16 5C15.5858 5 15.25 5.33579 15.25 5.75V6.0277C13.0446 6.19122 11.0383 7.07 9.46225 8.4329L9.26037 8.23102C8.96748 7.93813 8.4926 7.93813 8.19971 8.23102C7.90682 8.52392 7.90682 8.99879 8.19971 9.29168L8.40393 9.4959C7.05115 11.0743 6.18182 13.0793 6.02543 15.2812H5.71875C5.30454 15.2812 4.96875 15.617 4.96875 16.0312C4.96875 16.4455 5.30454 16.7812 5.71875 16.7812H6.03007C6.19954 18.9743 7.07642 20.9691 8.43284 22.5377L8.19971 22.7708C7.90682 23.0637 7.90682 23.5386 8.19971 23.8315C8.4926 24.1244 8.96748 24.1244 9.26037 23.8315L9.49583 23.596C11.0668 24.9424 13.0603 25.8099 15.25 25.9723V26.3125C15.25 26.7267 15.5858 27.0625 16 27.0625C16.4142 27.0625 16.75 26.7267 16.75 26.3125V25.9723C18.9397 25.8099 20.9332 24.9424 22.5041 23.5961L22.7396 23.8316C23.0325 24.1245 23.5074 24.1245 23.8003 23.8316C24.0932 23.5387 24.0932 23.0638 23.8003 22.7709L23.5671 22.5378C24.9236 20.9691 25.8005 18.9743 25.9699 16.7812H26.2812C26.6955 16.7812 27.0312 16.4455 27.0312 16.0312C27.0312 15.617 26.6955 15.2812 26.2812 15.2812H25.9746C25.8182 13.0792 24.9488 11.0743 23.596 9.49583L23.8003 9.29158C24.0932 8.99869 24.0932 8.52381 23.8003 8.23092C23.5074 7.93803 23.0325 7.93803 22.7396 8.23092L22.5377 8.43284C20.9616 7.06998 18.9553 6.19122 16.75 6.0277V5.75C16.75 5.33579 16.4142 5 16 5ZM21.4737 9.4968L17.5435 13.427C17.2995 13.2803 17.0328 13.1673 16.75 13.0945V7.53263C18.5417 7.68928 20.1741 8.40182 21.4737 9.4968ZM18.5962 14.4957L22.5316 10.5602C23.6168 11.8618 24.3203 13.4928 24.47 15.2812H18.9134C18.8447 15.002 18.7369 14.7381 18.5962 14.4957ZM18.5729 17.5436C18.7143 17.3085 18.8243 17.0525 18.8973 16.7812H24.4646C24.3024 18.5608 23.5918 20.1818 22.5031 21.4738L18.5729 17.5436ZM17.5042 18.5962L21.4397 22.5317C20.1457 23.6105 18.5262 24.3121 16.75 24.4674V18.9055C17.0177 18.8366 17.2709 18.7317 17.5042 18.5962ZM14.4957 18.5962C14.729 18.7316 14.9823 18.8366 15.25 18.9055V24.4674C13.4738 24.3121 11.8542 23.6105 10.5602 22.5316L14.4957 18.5962ZM13.427 17.5435L9.4968 21.4737C8.40819 20.1817 7.69758 18.5607 7.53542 16.7812H13.1027C13.1757 17.0525 13.2857 17.3085 13.427 17.5435ZM13.4038 14.4958C13.2631 14.7381 13.1553 15.002 13.0866 15.2812H7.52996C7.6797 13.4928 8.38314 11.8619 9.46831 10.5603L13.4038 14.4958ZM14.4564 13.4271L10.5262 9.49686C11.8258 8.40185 13.4582 7.68928 15.25 7.53263V13.0945C14.9672 13.1673 14.7005 13.2803 14.4564 13.4271ZM17.5 16C17.5 16.8284 16.8284 17.5 16 17.5C15.1716 17.5 14.5 16.8284 14.5 16C14.5 15.1716 15.1716 14.5 16 14.5C16.8284 14.5 17.5 15.1716 17.5 16Z" fill="white"/>
</svg>

<svg xmlns="http://www.w3.org/2000/svg" width="32" height="32" fill="none"><path fill="#8D65C5" d="M30 26a4 4 0 0 1-4 4H6a4 4 0 0 1-4-4V6a4 4 0 0 1 4-4h20a4 4 0 0 1 4 4v20Z"/><path fill="#fff" d="M16 5a.75.75 0 0 0-.75.75v.278a9.957 9.957 0 0 0-5.788 2.405L9.26 8.23a.75.75 0 0 0-1.06 1.06l.204.205a9.957 9.957 0 0 0-2.379 5.785H5.72a.75.75 0 0 0 0 1.5h.311a9.957 9.957 0 0 0 2.403 5.757l-.233.233a.75.75 0 0 0 1.06 1.06l.236-.235a9.957 9.957 0 0 0 5.754 2.376v.34a.75.75 0 0 0 1.5 0v-.34a9.957 9.957 0 0 0 5.754-2.376l.236.236a.75.75 0 0 0 1.06-1.061l-.233-.233a9.957 9.957 0 0 0 2.403-5.757h.311a.75.75 0 1 0 0-1.5h-.306a9.957 9.957 0 0 0-2.379-5.785l.204-.204a.75.75 0 1 0-1.06-1.061l-.202.202a9.958 9.958 0 0 0-5.788-2.405V5.75A.75.75 0 0 0 16 5Zm5.474 4.497-3.93 3.93a2.983 2.983 0 0 0-.794-.332V7.532a8.463 8.463 0 0 1 4.724 1.964Zm-2.878 4.999 3.936-3.936a8.461 8.461 0 0 1 1.938 4.721h-5.557a2.985 2.985 0 0 0-.317-.785Zm-.023 3.048c.141-.236.251-.492.324-.763h5.568a8.462 8.462 0 0 1-1.962 4.693l-3.93-3.93Zm-1.069 1.052 3.936 3.936a8.462 8.462 0 0 1-4.69 1.935v-5.561a2.98 2.98 0 0 0 .754-.31Zm-3.008 0c.233.136.486.24.754.31v5.561a8.462 8.462 0 0 1-4.69-1.935l3.936-3.936Zm-1.069-1.052-3.93 3.93a8.462 8.462 0 0 1-1.962-4.693h5.568c.073.271.183.527.324.763Zm-.023-3.048c-.14.242-.249.506-.317.785H7.53a8.462 8.462 0 0 1 1.938-4.72l3.936 3.935Zm1.052-1.069-3.93-3.93a8.462 8.462 0 0 1 4.724-1.964v5.561c-.283.073-.55.186-.794.333ZM17.5 16a1.5 1.5 0 1 1-3 0 1.5 1.5 0 0 1 3 0Z"/></svg>
